X: 25617
T: Marram
R: barndance
M: 4/4
K: Eminor
|:B2 d3e (a2|a4) e3d|e2(B4 B2)|B2 d2 e4|
g2 f2 d2 B2|A3G A2 B2|B4 d2 eA|A4 E2 E2|
D2 G3A B2|F4 G4|A2 F2 FD E2|A2 B2 (3ABA G2|
1E4 E2 D2|E4 E4:|2 E4 D2 D2|D4 D4||
|:e2 a3g e2|e4 d3B|de e6|A2 a3g e2|
e4 dB cd|de e6|e3f ed g2|a3g e2 cA|
BA G2 E4|D2 G3A Be|1 c3d B2 g2|e3d e4:|
[2 c3d B2 G2|E3D E4||

